icons/code-square.svg

<svg xmlns="http://www.w3.org/2000/svg" viewBox="0 0 24 24" fill="currentColor">
  <path d="M7.011 3.74327c-1.78579-.00238-3.25195 1.45988-3.25433 3.24566l-.01333 9.99997c-.00239 1.7982 1.37213 3.2519 3.24567 3.2544l9.99999.0133c1.7858.0024 3.2519-1.4599 3.2543-3.2457l.0134-9.99998c.0023-1.78578-1.4599-3.25195-3.2457-3.25433l-10-.01332ZM2.25667 6.98693C2.26015 4.37272 4.39879 2.23978 7.013 2.24327l10 .01332c2.6142.00349 4.7471 2.14212 4.7437 4.75633l-.0134 9.99998c-.0035 2.6142-2.1421 4.7472-4.7563 4.7437l-9.99999-.0133c-2.72645-.0037-4.74713-2.1545-4.74367-4.7564l.01333-9.99997ZM13.273 9.47131c.2933-.29251.7682-.29188 1.0607.00141l1.3981 1.40188c.2702.2709.4439.6302.4433 1.0309-.0005.4007-.1751.7596-.446 1.0297l-1.4019 1.3982c-.2933.2925-.7681.2918-1.0606-.0014-.2926-.2933-.2919-.7682.0014-1.0607l1.3715-1.3678-1.3679-1.3715c-.2925-.2933-.2919-.76819.0014-1.06069Zm-2.6409 1.15709c.2933-.2925.294-.76734.0015-1.06062-.2926-.29328-.76742-.29392-1.06071-.00141L8.17103 10.9645c-.27088.2702-.44551.6291-.44605 1.0297-.00053.4007.17315.7601.4433 1.031l1.39814 1.4018c.2925.2933.76738.2939 1.06068.0014.2933-.2925.2939-.7673.0014-1.0606l-1.36786-1.3715 1.37146-1.3679Z"/>
</svg>

<svg width="24" height="24" viewBox="0 0 24 24" fill="none" xmlns="http://www.w3.org/2000/svg">
<path fill-rule="evenodd" clip-rule="evenodd" d="M7.011 3.74327C5.22521 3.74089 3.75905 5.20315 3.75667 6.98893L3.74334 16.9889C3.74095 18.7871 5.11547 20.2408 6.98901 20.2433L16.989 20.2566C18.7748 20.259 20.2409 18.7967 20.2433 17.0109L20.2567 7.01092C20.259 5.22514 18.7968 3.75897 17.011 3.75659L7.011 3.74327ZM2.25667 6.98693C2.26015 4.37272 4.39879 2.23978 7.013 2.24327L17.013 2.25659C19.6272 2.26008 21.7601 4.39871 21.7567 7.01292L21.7433 17.0129C21.7398 19.6271 19.6012 21.7601 16.987 21.7566L6.98701 21.7433C4.26056 21.7396 2.23988 19.5888 2.24334 16.9869L2.25667 6.98693ZM13.273 9.47131C13.5663 9.1788 14.0412 9.17943 14.3337 9.47272L15.7318 10.8746C16.002 11.1455 16.1757 11.5048 16.1751 11.9055C16.1746 12.3062 16 12.6651 15.7291 12.9352L14.3272 14.3334C14.0339 14.6259 13.5591 14.6252 13.2666 14.332C12.974 14.0387 12.9747 13.5638 13.268 13.2713L14.6395 11.9035L13.2716 10.532C12.9791 10.2387 12.9797 9.76381 13.273 9.47131ZM10.6321 10.6284C10.9254 10.3359 10.9261 9.86106 10.6336 9.56778C10.341 9.2745 9.86618 9.27386 9.57289 9.56637L8.17103 10.9645C7.90015 11.2347 7.72552 11.5936 7.72498 11.9942C7.72445 12.3949 7.89813 12.7543 8.16828 13.0252L9.56642 14.427C9.85892 14.7203 10.3338 14.7209 10.6271 14.4284C10.9204 14.1359 10.921 13.6611 10.6285 13.3678L9.26064 11.9963L10.6321 10.6284Z" fill="black"/>
</svg>
